app/images/location-contacts.svg

<svg width="118" height="117" viewBox="0 0 118 117" fill="none" xmlns="http://www.w3.org/2000/svg">
<circle cx="55.1663" cy="54.2258" r="54.2256" fill="#266EF8" fill-opacity="0.42"/>
<circle cx="62.8216" cy="61.8812" r="53.5877" stroke="#626262" stroke-width="1.2759"/>
<path fill-rule="evenodd" clip-rule="evenodd" d="M55.2082 33.2338C68.5296 33.2338 79.3971 44.7364 79.3971 59.0117C79.3971 67.3092 72.2051 77.782 56.7315 90.0903L55.2082 91.2871C38.6827 78.46 31.0193 67.5769 31.0193 59.0117C31.0193 44.7364 41.8868 33.2338 55.2082 33.2338ZM55.2081 47.7471C49.8644 47.7471 45.5325 52.079 45.5325 57.4227C45.5325 62.7664 49.8644 67.0983 55.2081 67.0983C60.5517 67.0983 64.8836 62.7664 64.8836 57.4227C64.8836 52.079 60.5517 47.7471 55.2081 47.7471Z" fill="#292D32"/>
</svg>

<svg xmlns="http://www.w3.org/2000/svg" width="118" height="117" fill="none"><circle cx="55.166" cy="54.226" r="54.226" fill="#266EF8" fill-opacity=".42"/><circle cx="62.822" cy="61.881" r="53.588" stroke="#626262" stroke-width="1.276"/><path fill="#292D32" fill-rule="evenodd" d="M55.208 33.234c13.322 0 24.19 11.502 24.19 25.778 0 8.297-7.193 18.77-22.666 31.078l-1.524 1.197C38.683 78.46 31.02 67.577 31.02 59.012c0-14.276 10.868-25.778 24.19-25.778Zm0 14.513c-5.344 0-9.675 4.332-9.675 9.676 0 5.343 4.331 9.675 9.675 9.675s9.676-4.332 9.676-9.675c0-5.344-4.332-9.676-9.676-9.676Z" clip-rule="evenodd"/></svg>
